icons/svg/texture.svg

<svg xmlns="http://www.w3.org/2000/svg" version="1.1" baseProfile="full" width="24" height="24" viewBox="0 0 24.00 24.00" xml:space="preserve"><path fill="#000" fill-opacity="1" stroke-linejoin="round" d="M9.29 21h2.83L21 12.12V9.29M19 21c.55 0 1.05-.22 1.41-.59.37-.36.59-.86.59-1.41v-2l-4 4M5 3c-1.1 0-2 .9-2 2v2l4-4m4.88 0L3 11.88v2.83L14.71 3m4.8.08L3.08 19.51c.09.34.27.65.51.9.25.24.56.42.9.51L20.93 4.49c-.19-.69-.73-1.23-1.42-1.41z"/></svg>

﻿<?xml version="1.0" encoding="utf-8"?>
<!DOCTYPE svg PUBLIC "-//W3C//DTD SVG 1.1//EN" "http://www.w3.org/Graphics/SVG/1.1/DTD/svg11.dtd">
<svg xmlns="http://www.w3.org/2000/svg" xmlns:xlink="http://www.w3.org/1999/xlink" version="1.1" baseProfile="full" width="24" height="24" viewBox="0 0 24.00 24.00" enable-background="new 0 0 24.00 24.00" xml:space="preserve">
	<path fill="#000000" fill-opacity="1" stroke-linejoin="round" d="M 9.29,21L 12.12,21L 21,12.12L 21,9.29M 19,21C 19.55,21 20.05,20.78 20.41,20.41C 20.78,20.05 21,19.55 21,19L 21,17L 17,21M 5,3C 3.9,3 3,3.9 3,5L 3,7L 7,3M 11.88,3L 3,11.88L 3,14.71L 14.71,3M 19.51,3.08L 3.08,19.51C 3.17,19.85 3.35,20.16 3.59,20.41C 3.84,20.65 4.15,20.83 4.49,20.92L 20.93,4.49C 20.74,3.8 20.2,3.26 19.51,3.08 Z "/>
</svg>
